src/Icon/svgs/MuteOutline.svg

<svg width="24" height="24" viewBox="0 0 24 24" fill="none" xmlns="http://www.w3.org/2000/svg">
<path fill-rule="evenodd" clip-rule="evenodd" d="M20 22.5L21.5 21L3 2.5L1.5 4L4.5 7H2C1.44772 7 1 7.44772 1 8V16C1 16.5523 1.44772 17 2 17H6L11.4453 20.8321C11.7521 21.0366 12.1467 21.0557 12.4718 20.8817C12.797 20.7077 13 20.3688 13 20V15.5L16.3751 18.8751C16.1871 18.9328 15.9966 18.9811 15.8041 19.0196C15.2625 19.1279 14.9113 19.6547 15.0196 20.1963C15.1279 20.7379 15.6547 21.0891 16.1963 20.9808C16.7906 20.8619 17.3694 20.674 17.9222 20.4222L20 22.5ZM11 13.5L6.5 9H3V15H6.6332L11 18.0731V13.5Z" fill="#1B1C1D"/>
<path d="M23.0002 12.0002C23.0002 14.2547 22.3204 16.2048 21.2171 17.7171L19.7799 16.2799C20.5374 15.1326 21.0002 13.6804 21.0002 12.0002C21.0002 8.18271 18.6111 5.54219 15.8041 4.98077C15.2625 4.87246 14.9113 4.34564 15.0196 3.80408C15.1279 3.26252 15.6547 2.9113 16.1963 3.01961C19.9009 3.76052 23.0002 7.18609 23.0002 12.0002Z" fill="#1B1C1D"/>
<path d="M19.0002 12.0002C19.0002 13.0481 18.7902 14.0125 18.3534 14.8534L16.8222 13.3222C16.9422 12.9205 17.0002 12.4793 17.0002 12.0002C17.0002 10.6136 16.5144 9.54484 15.4455 8.83224C14.986 8.52589 14.8618 7.90502 15.1681 7.44549C15.4745 6.98596 16.0954 6.86179 16.5549 7.16814C18.2251 8.28163 19.0002 9.98678 19.0002 12.0002Z" fill="#1B1C1D"/>
<path d="M13 4V9.49999L11 7.49999V5.92693L10.0767 6.57669L8.64125 5.14125L11.4453 3.16795C11.7521 2.96338 12.1467 2.94431 12.4718 3.11833C12.797 3.29235 13 3.63121 13 4Z" fill="#1B1C1D"/>
</svg>

<svg xmlns="http://www.w3.org/2000/svg" width="24" height="24" fill="#1b1c1d"  xmlns:v="https://vecta.io/nano"><path fill-rule="evenodd" d="M20 22.5l1.5-1.5L3 2.5 1.5 4l3 3H2a1 1 0 0 0-1 1v8a1 1 0 0 0 1 1h4l5.445 3.832A1 1 0 0 0 13 20v-4.5l3.375 3.375a5.87 5.87 0 0 1-.571.145 1 1 0 1 0 .392 1.961c.594-.119 1.173-.307 1.726-.559L20 22.5zm-9-9L6.5 9H3v6h3.633L11 18.073V13.5z"/><path d="M23 12c0 2.255-.68 4.205-1.783 5.717L19.78 16.28C20.537 15.133 21 13.68 21 12c0-3.817-2.389-6.458-5.196-7.019a1 1 0 0 1 .392-1.961C19.901 3.761 23 7.186 23 12zm-4 0c0 1.048-.21 2.012-.647 2.853l-1.531-1.531A4.61 4.61 0 0 0 17 12c0-1.387-.486-2.455-1.555-3.168a1 1 0 0 1 1.109-1.664C18.225 8.282 19 9.987 19 12zm-6-8v5.5l-2-2V5.927l-.923.65-1.435-1.435 2.804-1.973A1 1 0 0 1 13 4z"/></svg>
